telegram_app/img/icons/link_icon.svg

<svg width="15" height="15" viewBox="0 0 15 15" fill="#B8B8B8" xmlns="http://www.w3.org/2000/svg">
<g clip-path="url(#clip0_29_29)">
<path d="M9.83037 2.42737C10.7269 1.52744 12.0381 1.50854 12.7641 2.23727C13.4913 2.96738 13.4717 4.28691 12.5747 5.18745L11.0598 6.70821C10.8771 6.89164 10.8777 7.18846 11.0611 7.37114C11.2445 7.55383 11.5413 7.55327 11.724 7.36983L13.2389 5.84907C14.4334 4.64988 14.5834 2.7353 13.4282 1.57564C12.2717 0.414613 10.3614 0.565934 9.16618 1.76574L6.13642 4.80728C4.94186 6.00647 4.79188 7.92108 5.94705 9.08071C6.12975 9.26414 6.42656 9.26471 6.60993 9.08202C6.79337 8.89933 6.79393 8.60252 6.61125 8.41908C5.88397 7.68902 5.90355 6.36946 6.80062 5.46891L9.83037 2.42737Z" fill="white"/>
<path d="M9.05325 5.91919C8.87056 5.73577 8.57375 5.7352 8.39031 5.9179C8.20694 6.10061 8.20637 6.39741 8.38906 6.58079C9.11631 7.31091 9.09675 8.63041 8.19969 9.53097L5.16992 12.5725C4.27347 13.4725 2.96217 13.4914 2.23625 12.7627C1.50896 12.0325 1.52855 10.713 2.42562 9.81241L3.94052 8.29166C4.12322 8.10822 4.12265 7.81147 3.93924 7.62872C3.75582 7.44604 3.45902 7.4466 3.27632 7.63004L1.76142 9.15079C0.566859 10.35 0.416884 12.2646 1.57205 13.4243C2.7286 14.5853 4.63894 14.434 5.83412 13.2342L8.86387 10.1926C10.0584 8.99341 10.2084 7.07885 9.05325 5.91919Z" fill="white"/>
</g>
<defs>
<clipPath id="clip0_29_29">
<rect width="15" height="15" fill="white"/>
</clipPath>
</defs>
</svg>

<svg width="15" height="15" fill="#B8B8B8" xmlns="http://www.w3.org/2000/svg"><g clip-path="url(#clip0_29_29)" fill="#fff"><path d="M9.83 2.427c.897-.9 2.208-.918 2.934-.19.727.73.708 2.05-.19 2.95L11.06 6.708a.469.469 0 00.664.662l1.515-1.52c1.194-1.2 1.344-3.115.19-4.274-1.157-1.161-3.068-1.01-4.263.19l-3.03 3.041c-1.194 1.2-1.344 3.114-.189 4.274a.469.469 0 10.664-.662c-.727-.73-.707-2.05.19-2.95l3.03-3.042z"/><path d="M9.053 5.92a.469.469 0 00-.664.66c.727.73.708 2.05-.19 2.951l-3.03 3.041c-.896.9-2.207.92-2.933.19-.727-.73-.707-2.049.19-2.95l1.515-1.52a.469.469 0 00-.665-.662L1.761 9.15c-1.194 1.2-1.344 3.115-.189 4.274 1.157 1.161 3.067 1.01 4.262-.19l3.03-3.041c1.194-1.2 1.344-3.114.19-4.274z"/></g><defs><clipPath id="clip0_29_29"><path fill="#fff" d="M0 0h15v15H0z"/></clipPath></defs></svg>
